X: 6
T: The Maid On The Green
R: jig
M: 6/8
L: 1/8
K: Gmaj
d|:g(3ggg e2d|B(3eee dBA|BAG AGA|BAA A2G|g(3ggg e2d|B(3eee dBA|BAG dBA|BGGG2:|e|:gggaee |ggga2e |ggg egg|ffe d2e|bbb aaa|ggg e2d|Bde dBA|BGGG:|


Tune 1831	Setting 15262

